X:1
T:Yellow Barber
M:2/4
L:1/4
S:GerryMilnes
Z:Andrew Kuntz/Fiddler's Companion tradtunes 2002-4-14
K:D
A,/B,/D/E/DD/D/ | A,/B,/D/E/ F/E/D | C/D/E E(A,/B,/ | C)E G/F/E |
E/F/AAA/A/ | B/A/F/G/ A g/f/ | (3f/g/f/e (3d/e/d/B | A/F/E/F/ D2 :|
|: (A<d)d>B | Ad/e/ f/e/d | c/d/e/f/ ee/d/ | ce/f/ g/f/e |
f/a/f/f/ e/d/B/d/ | B/A/F/G/ AA/A/ | ((3f/g/f/e)((3d/e/d/B) | A/F/E/F/ D2 :|
